X: 42156
T: Water Is Wide, The
R: waltz
M: 3/4
K: Dmajor
[M:4/4]
[L: 1/4]
A/ d/d/ e|f4-|f3/2 e/ e/d B/|A4-|A2 d c|
d4-|d e/f/ g f|e4-|e3/2 e/ f g|
a4-|a g/f/ e d|f4-|f e d B|
A4-|A A B/ d c/|d4-|d3/2:|

